static/images/onboarding/respect-illustration.svg

<svg width="360" height="360" fill="none" xmlns="http://www.w3.org/2000/svg"><path fill-rule="evenodd" clip-rule="evenodd" d="M223.991 53.84c-1.391 15.513-18.992 27.764-23.432 27.764-4.44 0-22.04-12.197-23.431-27.764-.054-.482-.054-1.017-.054-1.498 0-7.543 6.152-13.642 13.695-13.642 3.852 0 7.329 1.551 9.79 4.12 2.461-2.569 5.938-4.12 9.79-4.12 7.543 0 13.695 6.152 13.695 13.642.054.481 0 .962-.053 1.498Z" fill="#FF6680"/><path opacity=".3" d="M120.85 125.379c5.735-7.163 2.391-19.37-7.469-27.264-9.86-7.895-22.503-8.488-28.238-1.325-5.735 7.163-2.391 19.37 7.469 27.264 9.86 7.895 22.502 8.488 28.238 1.325Z" fill="#4D97FF"/><path opacity=".3" fill-rule="evenodd" clip-rule="evenodd" d="M153.523 304.31c-15.875 11.099-45.607 9.485-71.64-3.7-21.055-10.695-39.62-28.925-46.213-54.15-1.009-3.7-1.883-7.265-2.758-10.561a638.785 638.785 0 0 1-4.709-18.97c-7.937-34.239-4.91-41.302 9.014-65.922 8.476-14.866 33.433-24.486 54.016-11.839 4.507 2.758 8.813 6.592 12.647 11.637.672.874 1.345 1.749 1.951 2.691 5.179 7.601 9.417 17.557 12.242 30.405a159.812 159.812 0 0 0 4.373 15.808c.538 1.614 1.076 3.229 1.681 4.843 3.229 8.879 6.996 17.153 10.965 24.889a420.163 420.163 0 0 0 7.265 13.655c2.489 4.44 4.843 8.678 7.13 12.781 1.817 3.229 3.498 6.323 4.978 9.283a.518.518 0 0 1 .135.337c8.677 16.951 11.839 29.732-1.077 38.813ZM305.82 258.097c-2.489 4.171-5.382 8.341-8.543 12.377-17.086 21.862-42.446 40.428-64.241 47.491-2.489.808-4.91 1.48-7.332 1.951h-.067c-9.889 2.018-18.634 1.278-25.024-3.162-9.956-6.995-20.113-24.216-23.544-43.858-1.143-6.391-1.547-13.05-1.009-19.642.471-5.516 1.547-10.965 3.431-16.279 5.516-15.674 17.826-30.002 40.293-39.083 9.351-3.767 16.952-9.35 23.477-15.875 8.005-8.005 14.395-17.288 20.046-26.1 17.22-26.84 28.252-49.24 61.617-16.682 20.786 20.18 11.57 67.469-19.104 118.862Z" fill="#4D97FF"/><path d="M297.274 270.474c-17.086 21.862-42.446 40.428-64.241 47.491-2.489.807-4.91 1.48-7.332 1.951-10.426-15.001-32.154-43.59-48.634-47.02a26.909 26.909 0 0 0-2.288-.337h-.538c-.336 0-.672 0-1.009-.067-6.121-.471-12.646-3.363-18.767-7.265-1.548-1.009-3.095-2.018-4.642-3.161a132.604 132.604 0 0 1-5.785-4.507c-9.014-7.534-15.472-15.001-15.472-15.001l6.458-12.983 18.095-36.324 11.772-23.679 5.785-11.57 5.583-11.301 20.382-40.966 46.617 76.215 24.015 39.351 30.001 49.173Z" fill="#E4B681"/><path opacity=".1" d="M266.734 222.243s0 .068 0 0c-.201.269-2.018 2.96-4.91 6.66-5.987 7.467-16.481 18.902-26.436 21.324-15.136 3.632-30.204 17.893-26.033 29.934 3.027 8.61 16.346 27.647 23.678 37.737-2.489.807-4.91 1.48-7.332 1.951h-.067c-10.494-14.934-32.423-43.455-48.568-47.02-.74-.202-1.547-.269-2.287-.337h-.538c-.336 0-.673 0-1.009-.067-6.659-.471-12.983-3.296-18.566-6.996-1.682-1.076-3.229-2.22-4.776-3.43-1.883-1.548-3.7-3.095-5.314-4.642-6.929-6.525-11.234-12.714-11.234-12.714l9.081-1.547 37.065-6.188 87.246-14.665Z" fill="#000"/><path d="M277.366 192.04c.403 8.207-5.651 20.584-10.091 29.261-.201.337-.336.673-.538 1.009a107.08 107.08 0 0 1-1.547 2.96c-.605 1.211-1.749 2.422-3.363 3.633-12.983 9.821-55.429 19.911-85.767 24.283-9.148 1.279-17.153 2.086-22.938 2.22-1.144 0-2.287.202-3.633.471a33.847 33.847 0 0 0-4.977 1.48c-.135.067-.269.135-.404.135-18.902 7.197-48.298 31.212-62.223 43.051-21.055-10.696-39.62-28.925-46.213-54.151-1.009-3.699-1.883-7.265-2.758-10.561a638.018 638.018 0 0 1-4.708-18.969l42.378-36.998 2.624-2.287 2.556-2.219c6.66-5.785 13.05-11.436 18.97-16.548.74-.606 1.412-1.278 2.152-1.884 2.489-2.152 4.843-4.238 7.063-6.188a2207.74 2207.74 0 0 0 9.687-8.476c1.009-.875 1.883-1.682 2.758-2.422 2.758-2.422 4.91-4.305 6.188-5.381 3.027-2.691 6.996-5.449 11.907-8.274.874-.538 1.816-1.009 2.758-1.547 6.996-3.835 15.606-7.602 25.629-11.1 1.211-.403 2.489-.874 3.767-1.278 2.287-.74 4.708-1.48 7.197-2.152 7.131-1.951 14.867-3.7 22.939-5.853 5.381-1.479 10.964-3.094 16.682-5.18.404-.134.807-.335 1.278-.47 34.912-13.117 36.728 13.79 36.325 23.006v.067c-.067 1.816-.202 2.892-.202 2.892s3.094 1.682 6.054 5.113c4.171 4.776 8.207 12.982 3.364 24.485h.067c.202.067 1.211.471 2.556 1.278h.067c.202.068.337.202.538.337 4.776 2.959 12.647 10.292 7.198 24.687l.067.067c.135.135.471.404.942.807.067 0 .067.068.135.135 1.681 1.883 5.314 5.987 5.516 10.561Z" fill="#B68554"/><path opacity=".1" d="M176.329 146.567c-.471 8.947-3.498 20.382-13.05 34.845-3.161 4.776-6.592 8.677-10.157 11.772-9.149 7.937-19.239 10.897-29.06 11.435-18.162 1.009-34.912-6.457-41.37-5.852-7.13.673-32.355 21.795-49.912 37.132a638.785 638.785 0 0 1-4.71-18.97l42.38-36.997 2.623-2.287 2.556-2.22 19.71-14.328 2.354-1.682 8.072-5.852 9.35-6.794 3.027-2.153 18.028-13.117 2.556-1.883 20.113-14.598 5.18-1.479 25.427-7.265c.875 3.43-6.188 7.332-13.924 13.386-4.911 3.767 1.614 11.839.807 26.907Z" fill="#000"/><path d="M196.642 104.256s-6.458-7.938-18.297-7.938c-6.727 0-22.198 4.171-22.198 4.171s-7.265-.875-14.934 2.018c-5.852 2.219-8.744 6.726-8.744 6.726s-7.804-2.152-15.001 3.296c-7.265 5.449-6.794 11.705-6.794 11.705s-10.696 1.009-16.145 8.072c-5.448 7.063-2.825 11.436-2.825 11.436s-32.76 11.973-9.888 41.975c22.669 29.732 27.109 1.816 23.88-5.718 0 0 8.745 23.813 20.718 21.055 10.427-2.422 4.507-26.033 4.507-26.033s13.79 18.768 21.257 10.629c7.332-7.938-.336-20.921-.336-20.921s2.825 5.045 6.861 6.391c4.776 1.681 10.965-.807 11.839-8.745 1.547-12.915-6.592-48.837-6.592-48.837l32.692-9.282Z" fill="#E4B681"/><path opacity=".1" d="m250.726 124.57-25.83 9.418s-.539-7.063 4.036-8.409c4.641-1.345 21.996-3.969 21.996-3.969l-.202 2.96ZM270.502 180.537l-7.736 20.651s3.834.068 4.843-2.69c1.009-2.691 4.036-16.952 4.036-16.952l-1.143-1.009ZM260.142 154.168l-14.53 13.588s3.767 3.296 6.727.538c2.892-2.757 10.493-12.78 10.493-12.78l-2.69-1.346ZM91.705 143.674l13.991 36.325s-1.278-1.345-2.489-2.556c-3.43-3.364-12.444-29.665-12.915-33.163l1.413-.606ZM130.92 174.954s-17.759-41.302-20.248-50.854l-3.296.605c.067 0 16.884 50.585 23.544 50.249ZM151.841 164.662c-4.373-7.937-19.306-55.496-19.306-55.496l-3.431-.269s14.463 50.653 22.737 55.765c0 0 1.614 3.565 1.21 2.422-.471-1.144-1.21-2.422-1.21-2.422ZM164.554 110.848c5.516-.605 11.771-.874 11.771-.874l-12.444 3.497s-7.669.404-10.427-.538c-1.614-.538-4.574-1.009-5.516-4.305.068 0 4.709 3.498 16.616 2.22Z" fill="#000"/></svg>

<svg width="360" height="360" viewBox="0 0 360 360" fill="none" xmlns="http://www.w3.org/2000/svg">
<path fill-rule="evenodd" clip-rule="evenodd" d="M223.991 53.8395C222.6 69.3534 204.999 81.6041 200.559 81.6041C196.119 81.6041 178.519 69.4069 177.128 53.8395C177.074 53.358 177.074 52.823 177.074 52.3416C177.074 44.7986 183.226 38.7 190.769 38.7C194.621 38.7 198.098 40.2514 200.559 42.8192C203.02 40.2514 206.497 38.7 210.349 38.7C217.892 38.7 224.044 44.8521 224.044 52.3416C224.098 52.823 224.044 53.3045 223.991 53.8395Z" fill="#FF6680"/>
<path opacity="0.3" d="M120.85 125.379C126.585 118.216 123.241 106.009 113.381 98.1147C103.521 90.2201 90.8784 89.627 85.1433 96.79C79.4081 103.953 82.7519 116.16 92.6119 124.054C102.472 131.949 115.114 132.542 120.85 125.379Z" fill="#4D97FF"/>
<path opacity="0.3" fill-rule="evenodd" clip-rule="evenodd" d="M153.523 304.31C137.648 315.409 107.916 313.795 81.8832 300.61C60.8284 289.915 42.2625 271.685 35.6702 246.46C34.6612 242.76 33.7867 239.195 32.9122 235.899C31.0287 228.768 29.4816 222.445 28.2035 216.929C20.2659 182.69 23.2929 175.627 37.2174 151.007C45.6931 136.141 70.6495 126.521 91.2334 139.168C95.7404 141.926 100.046 145.76 103.88 150.805C104.552 151.679 105.225 152.554 105.831 153.496C111.01 161.097 115.248 171.053 118.073 183.901C119.284 189.349 120.764 194.664 122.446 199.709C122.984 201.323 123.522 202.938 124.127 204.552C127.356 213.431 131.123 221.705 135.092 229.441C137.514 234.217 139.935 238.724 142.357 243.096C144.846 247.536 147.2 251.774 149.487 255.877C151.304 259.106 152.985 262.2 154.465 265.16C154.532 265.228 154.6 265.362 154.6 265.497C163.277 282.448 166.439 295.229 153.523 304.31Z" fill="#4D97FF"/>
<path opacity="0.3" fill-rule="evenodd" clip-rule="evenodd" d="M305.82 258.097C303.331 262.268 300.438 266.438 297.277 270.474C280.191 292.336 254.831 310.902 233.036 317.965C230.547 318.773 228.126 319.445 225.704 319.916H225.637C215.748 321.934 207.003 321.194 200.613 316.754C190.657 309.759 180.5 292.538 177.069 272.896C175.926 266.505 175.522 259.846 176.06 253.254C176.531 247.738 177.607 242.289 179.491 236.975C185.007 221.301 197.317 206.973 219.784 197.892C229.135 194.125 236.736 188.542 243.261 182.017C251.266 174.012 257.656 164.729 263.307 155.917C280.527 129.077 291.559 106.677 324.924 139.235C345.71 159.415 336.494 206.704 305.82 258.097Z" fill="#4D97FF"/>
<path d="M297.274 270.474C280.188 292.336 254.828 310.902 233.033 317.965C230.544 318.772 228.123 319.445 225.701 319.916C215.275 304.915 193.547 276.326 177.067 272.896C176.327 272.761 175.519 272.627 174.779 272.559C174.578 272.559 174.443 272.559 174.241 272.559C173.905 272.559 173.569 272.559 173.232 272.492C167.111 272.021 160.586 269.129 154.465 265.227C152.917 264.218 151.37 263.209 149.823 262.066C147.805 260.586 145.922 259.106 144.038 257.559C135.024 250.025 128.566 242.558 128.566 242.558L135.024 229.575L153.119 193.251L164.891 169.572L170.676 158.002L176.259 146.701L196.641 105.735L243.258 181.95L267.273 221.301L297.274 270.474Z" fill="#E4B681"/>
<path opacity="0.1" d="M266.734 222.243C266.734 222.243 266.734 222.311 266.734 222.243C266.533 222.512 264.716 225.203 261.824 228.903C255.837 236.37 245.343 247.805 235.388 250.227C220.252 253.859 205.184 268.12 209.355 280.161C212.382 288.771 225.701 307.808 233.033 317.898C230.544 318.705 228.123 319.378 225.701 319.849H225.634C215.14 304.915 193.211 276.394 177.066 272.829C176.326 272.627 175.519 272.56 174.779 272.492C174.577 272.492 174.443 272.492 174.241 272.492C173.905 272.492 173.568 272.492 173.232 272.425C166.573 271.954 160.249 269.129 154.666 265.429C152.984 264.353 151.437 263.209 149.89 261.999C148.007 260.451 146.19 258.904 144.576 257.357C137.647 250.832 133.342 244.643 133.342 244.643L142.423 243.096L179.488 236.908L266.734 222.243Z" fill="black"/>
<path d="M277.366 192.04C277.769 200.247 271.715 212.624 267.275 221.301C267.074 221.638 266.939 221.974 266.737 222.31C266.199 223.387 265.661 224.396 265.19 225.27C264.585 226.481 263.441 227.692 261.827 228.903C248.844 238.724 206.398 248.814 176.06 253.186C166.912 254.465 158.907 255.272 153.122 255.406C151.978 255.406 150.835 255.608 149.489 255.877C147.942 256.213 146.261 256.684 144.512 257.357C144.377 257.424 144.243 257.492 144.108 257.492C125.206 264.689 95.8097 288.704 81.8853 300.543C60.8305 289.847 42.2645 271.618 35.6723 246.392C34.6633 242.693 33.7888 239.127 32.9143 235.831C31.0308 228.701 29.4837 222.378 28.2056 216.862L70.5843 179.864L73.2077 177.577L75.7639 175.358C82.4234 169.573 88.8139 163.922 94.7334 158.81C95.4734 158.204 96.1461 157.532 96.886 156.926C99.3749 154.774 101.729 152.688 103.949 150.738C107.582 147.576 110.81 144.751 113.636 142.262C114.645 141.387 115.519 140.58 116.394 139.84C119.152 137.418 121.304 135.535 122.582 134.459C125.609 131.768 129.578 129.01 134.489 126.185C135.363 125.647 136.305 125.176 137.247 124.638C144.243 120.803 152.853 117.036 162.876 113.538C164.087 113.135 165.365 112.664 166.643 112.26C168.93 111.52 171.351 110.78 173.84 110.108C180.971 108.157 188.707 106.408 196.779 104.255C202.16 102.776 207.743 101.161 213.461 99.0758C213.865 98.9413 214.268 98.7395 214.739 98.605C249.651 85.4877 251.467 112.395 251.064 121.611V121.678C250.997 123.494 250.862 124.57 250.862 124.57C250.862 124.57 253.956 126.252 256.916 129.683C261.087 134.459 265.123 142.665 260.28 154.168H260.347C260.549 154.235 261.558 154.639 262.903 155.446H262.97C263.172 155.514 263.307 155.648 263.508 155.783C268.284 158.742 276.155 166.075 270.706 180.47L270.773 180.537C270.908 180.672 271.244 180.941 271.715 181.344C271.782 181.344 271.782 181.412 271.85 181.479C273.531 183.362 277.164 187.466 277.366 192.04Z" fill="#B68554"/>
<path opacity="0.1" d="M176.329 146.567C175.858 155.514 172.831 166.949 163.279 181.412C160.118 186.188 156.687 190.089 153.122 193.184C143.973 201.121 133.883 204.081 124.062 204.619C105.9 205.628 89.15 198.162 82.6923 198.767C75.5619 199.44 50.3365 220.562 32.7795 235.899C30.896 228.768 29.3489 222.445 28.0708 216.929L70.4495 179.932L73.073 177.645L75.6292 175.425L95.3386 161.097L97.693 159.415L105.765 153.563L115.115 146.769L118.142 144.616L136.17 131.499L138.726 129.616L158.839 115.018L164.019 113.539L189.446 106.274C190.321 109.704 183.258 113.606 175.522 119.66C170.611 123.427 177.136 131.499 176.329 146.567Z" fill="black"/>
<path d="M196.642 104.256C196.642 104.256 190.184 96.3179 178.345 96.3179C171.618 96.3179 156.147 100.489 156.147 100.489C156.147 100.489 148.882 99.6141 141.213 102.507C135.361 104.726 132.469 109.233 132.469 109.233C132.469 109.233 124.665 107.081 117.468 112.529C110.203 117.978 110.674 124.234 110.674 124.234C110.674 124.234 99.9782 125.243 94.5295 132.306C89.0808 139.369 91.7042 143.742 91.7042 143.742C91.7042 143.742 58.9448 155.715 81.8158 185.717C104.485 215.449 108.925 187.533 105.696 179.999C105.696 179.999 114.441 203.812 126.414 201.054C136.841 198.632 130.921 175.021 130.921 175.021C130.921 175.021 144.711 193.789 152.178 185.65C159.51 177.712 151.842 164.729 151.842 164.729C151.842 164.729 154.667 169.774 158.703 171.12C163.479 172.801 169.668 170.313 170.542 162.375C172.089 149.46 163.95 113.538 163.95 113.538L196.642 104.256Z" fill="#E4B681"/>
<path opacity="0.1" d="M250.726 124.57L224.896 133.988C224.896 133.988 224.357 126.925 228.932 125.579C233.573 124.234 250.928 121.61 250.928 121.61L250.726 124.57Z" fill="black"/>
<path opacity="0.1" d="M270.502 180.537L262.766 201.188C262.766 201.188 266.6 201.256 267.609 198.498C268.618 195.807 271.645 181.546 271.645 181.546L270.502 180.537Z" fill="black"/>
<path opacity="0.1" d="M260.142 154.168L245.612 167.756C245.612 167.756 249.379 171.052 252.339 168.294C255.231 165.537 262.832 155.514 262.832 155.514L260.142 154.168Z" fill="black"/>
<path opacity="0.1" d="M91.7046 143.674L105.696 179.999C105.696 179.999 104.418 178.654 103.207 177.443C99.7767 174.079 90.7629 147.778 90.292 144.28L91.7046 143.674Z" fill="black"/>
<path opacity="0.1" d="M130.92 174.954C130.92 174.954 113.161 133.652 110.672 124.1L107.376 124.705C107.443 124.705 124.26 175.29 130.92 174.954Z" fill="black"/>
<path opacity="0.1" d="M151.841 164.662C147.468 156.725 132.535 109.166 132.535 109.166L129.104 108.897C129.104 108.897 143.567 159.55 151.841 164.662C151.841 164.662 153.455 168.227 153.051 167.084C152.58 165.94 151.841 164.662 151.841 164.662Z" fill="black"/>
<path opacity="0.1" d="M164.554 110.848C170.07 110.243 176.325 109.974 176.325 109.974L163.881 113.471C163.881 113.471 156.212 113.875 153.454 112.933C151.84 112.395 148.88 111.924 147.938 108.628C148.006 108.628 152.647 112.126 164.554 110.848Z" fill="black"/>
</svg>
